X: 1
T: Monicas Slängpolska
R: Slängpolska
M: 3/4
L: 1/8
C: Anders Ådin
K: GMajor
G>d cB AG | Ac/B/ AG FD | EG cB AG | A/B/A/G/ FE D2 |
G>d cB AG | Ac/B/ AG FD | EG cB AF |1 G6 :|2 G4-G d |
|: e3 f2 g | f>g fe d2 | e3 f2 g | ba/g/ ag/f/ ed | 
e3 f2 g | f>g fe dD | EG cB AF |1 G4-G d :|2 G6 |


|
